app/assets/img/ic-goods.svg

<svg xmlns="http://www.w3.org/2000/svg" width="250" height="250" viewBox="0 0 250 250">
  <g fill="none" fill-rule="evenodd">
    <rect width="250" height="250"/>
    <path fill="#000000" fill-rule="nonzero" d="M220.997844,82 L180.997844,52 C179.267844,50.7 177.157844,50 174.997844,50 L159.137844,50 L152.067844,42.93 C150.187844,41.05 147.647844,40 144.997844,40 L104.997844,40 C102.347844,40 99.7978441,41.05 97.9278441,42.93 L90.8578441,50 L74.9978441,50 C72.8378441,50 70.7278441,50.7 68.9978441,52 L28.9978441,82 C25.1278441,84.9 23.8978441,90.15 26.0578441,94.47 L46.0578441,134.47 C48.5378441,139.41 54.5278441,141.43 59.4778441,138.94 L65.0078441,136.18 L65.0078441,200 C65.0078441,205.52 69.4878441,210 75.0078441,210 L175.007844,210 C180.527844,210 185.007844,205.52 185.007844,200 L185.007844,136.18 L190.537844,138.94 C195.497844,141.42 201.487844,139.4 203.957844,134.47 L223.957844,94.47 C226.097844,90.16 224.867844,84.9 220.997844,82 Z"/>
  </g>
</svg>

<svg height="250" viewBox="0 0 250 250" width="250" xmlns="http://www.w3.org/2000/svg"><g fill="none" fill-rule="evenodd"><path d="m0 0h250v250h-250z"/><path d="m220.997844 82-40-30c-1.73-1.3-3.84-2-6-2h-15.86l-7.07-7.07c-1.88-1.88-4.42-2.93-7.07-2.93h-40c-2.65 0-5.1999999 1.05-7.0699999 2.93l-7.07 7.07h-15.86c-2.16 0-4.27.7-6 2l-40 30c-3.87 2.9-5.1 8.15-2.94 12.47l20 40c2.48 4.94 8.47 6.96 13.42 4.47l5.53-2.76v63.82c0 5.52 4.48 10 10 10h99.9999999c5.52 0 10-4.48 10-10v-63.82l5.53 2.76c4.96 2.48 10.95.46 13.42-4.47l20-40c2.14-4.31.91-9.57-2.96-12.47z" fill="#000" fill-rule="nonzero"/></g></svg>
